Newaita-dark/apps/48/youtube-dl.svg

<svg height="48pt" viewBox="0 0 48 48" width="48pt" xmlns="http://www.w3.org/2000/svg" xmlns:xlink="http://www.w3.org/1999/xlink"><linearGradient id="a" gradientUnits="userSpaceOnUse" x1="23.81478" x2="23.81478" y1="37.0894935" y2="39.07405950005"><stop offset="0" stop-opacity=".27451"/><stop offset="1" stop-opacity="0"/></linearGradient><linearGradient id="b"><stop offset="0" stop-opacity=".313725"/><stop offset=".222222" stop-opacity=".27451"/><stop offset="1" stop-opacity="0"/></linearGradient><radialGradient id="c" cx="450.908936" cy="189.579361" gradientTransform="matrix(.00000026 -.117199 -.210958 -.00000015 79.684395 90.431589)" gradientUnits="userSpaceOnUse" r="21.166656" xlink:href="#b"/><radialGradient id="d" cx="450.908936" cy="189.579361" gradientTransform="matrix(-.00000026 .117199 .210958 .00000015 -31.80678 -16.252629)" gradientUnits="userSpaceOnUse" r="21.166656" xlink:href="#b"/><radialGradient id="e" cx="450.908936" cy="189.579361" gradientTransform="matrix(-.00000026 -.117199 .210958 -.00000015 -31.80678 90.431589)" gradientUnits="userSpaceOnUse" r="21.166656" xlink:href="#b"/><radialGradient id="f" cx="450.908936" cy="189.579361" gradientTransform="matrix(.00000026 .117199 -.210958 .00000015 79.684393 -16.252629)" gradientUnits="userSpaceOnUse" r="21.166656" xlink:href="#b"/><linearGradient id="g" gradientUnits="userSpaceOnUse" x1="23.814786" x2="23.814786" y1="38.08177100005" y2="8.3132869999"><stop offset="0" stop-color="#f44336"/><stop offset="1" stop-color="#ef5350"/></linearGradient><linearGradient id="h" gradientUnits="userSpaceOnUse" x1="23.814816" x2="23.814816" y1="33.10406080616" y2="12.76221533865"><stop offset="0" stop-color="#e0e0e0"/><stop offset="1" stop-color="#eee"/></linearGradient><path d="m7.691406 37.089844h32.496094v1.984375h-32.496094zm0 0" fill="url(#a)"/><path d="m40.1875 37.089844h3.96875v-1.984375h-3.96875zm0 0" fill="url(#c)"/><path d="m7.691406 37.089844h-3.96875v1.984375h3.96875zm0 0" fill="url(#d)"/><path d="m7.691406 37.089844h-3.96875v-1.984375h3.96875zm0 0" fill="url(#e)"/><path d="m40.1875 37.089844h3.96875v1.984375h-3.96875zm0 0" fill="url(#f)"/><path d="m43.660156 13.273438c-.476562-1.777344-1.878906-3.179688-3.660156-3.65625-3.246094-.890626-16.242188-.890626-16.242188-.890626s-12.996093 0-16.242187.855469c-1.746094.476563-3.179687 1.914063-3.660156 3.691407-.855469 3.25-.855469 9.988281-.855469 9.988281s0 6.769531.855469 9.984375c.480469 1.777344 1.878906 3.179687 3.660156 3.660156 3.28125.886719 16.242187.886719 16.242187.886719s12.996094 0 16.242188-.855469c1.78125-.476562 3.183594-1.878906 3.660156-3.65625.855469-3.25.855469-9.988281.855469-9.988281s.035156-6.769531-.855469-10.019531zm0 0" fill="url(#g)"/><path d="m23.757812 8.726562s-12.996093 0-16.242187.855469c-1.746094.476563-3.179687 1.914063-3.660156 3.691407-.855469 3.25-.855469 9.988281-.855469 9.988281s0 .125.003906.339843c.011719-1.394531.109375-6.832031.851563-9.648437.480469-1.777344 1.914062-3.214844 3.660156-3.691406 3.246094-.855469 16.242187-.855469 16.242187-.855469s12.996094 0 16.242188.886719c1.78125.480469 3.183594 1.882812 3.660156 3.660156.753906 2.757813.84375 8.03125.855469 9.574219 0-.121094 0-.234375 0-.234375s.035156-6.769531-.855469-10.019531c-.476562-1.777344-1.878906-3.179688-3.660156-3.65625-3.246094-.890626-16.242188-.890626-16.242188-.890626zm0 0" fill="#fff" fill-opacity=".392157"/><path d="m23.757812 37.832031s-12.996093 0-16.242187-.851562c-1.746094-.480469-3.179687-1.917969-3.660156-3.695313-.855469-3.25-.855469-9.984375-.855469-9.984375s0-.125.003906-.339843c.011719 1.394531.109375 6.828124.851563 9.644531.480469 1.78125 1.914062 3.214843 3.660156 3.695312 3.246094.855469 16.242187.855469 16.242187.855469s12.996094 0 16.242188-.890625c1.78125-.476563 3.183594-1.878906 3.660156-3.660156.753906-2.753907.84375-8.03125.855469-9.570313v.230469s.035156 6.769531-.855469 10.019531c-.476562 1.777344-1.878906 3.179688-3.660156 3.660156-3.246094.886719-16.242188.886719-16.242188.886719zm0 0" fill-opacity=".235294"/><path d="m23.757812 8.554688s-3.25 0-6.910156.109374c-3.65625.105469-7.699218.308594-9.375.753907h-.003906c-1.804688.492187-3.285156 1.972656-3.777344 3.8125-.4375 1.652343-.648437 4.152343-.753906 6.246093-.109375 2.09375-.109375 3.785157-.109375 3.785157s0 1.695312.109375 3.792969c.105469 2.101562.316406 4.597656.753906 6.234374.492188 1.839844 1.941406 3.285157 3.777344 3.78125 1.695312.457032 5.738281.671876 9.394531.785157 3.652344.109375 6.894531.109375 6.894531.109375s3.25 0 6.910157-.105469c3.65625-.109375 7.699219-.3125 9.378906-.753906 1.835937-.496094 3.285156-1.945313 3.777344-3.78125.4375-1.652344.648437-4.152344.753906-6.246094.109375-2.09375.109375-3.78125.109375-3.78125v-.003906s.007812-1.695313-.09375-3.796875c-.105469-2.105469-.316406-4.613282-.769531-6.265625-.492188-1.835938-1.941407-3.285157-3.777344-3.78125-1.679687-.457031-5.722656-.671875-9.378906-.78125-3.660157-.113281-6.910157-.113281-6.910157-.113281zm0 .34375s3.246094 0 6.898438.109374c3.652344.113282 7.730469.34375 9.300781.773438 1.71875.460938 3.074219 1.820312 3.539063 3.539062.4375 1.59375.652344 4.097657.753906 6.191407s.09375 3.78125.09375 3.78125 0 1.679687-.105469 3.765625c-.105469 2.085937-.324219 4.582031-.742187 6.175781-.464844 1.71875-1.820313 3.074219-3.539063 3.539063-1.570312.414062-5.648437.636718-9.300781.742187s-6.898438.105469-6.898438.105469-3.238281 0-6.886718-.109375c-3.644532-.109375-7.726563-.34375-9.3125-.773438-1.71875-.460937-3.074219-1.816406-3.539063-3.539062-.417969-1.578125-.636719-4.070313-.742187-6.160157-.105469-2.089843-.105469-3.777343-.105469-3.777343s0-1.683594.105469-3.765625c.105468-2.085938.324218-4.582032.742187-6.175782.464844-1.71875 1.855469-3.113281 3.539063-3.574218 1.574218-.414063 5.648437-.636719 9.300781-.742188 3.652344-.105468 6.898437-.105468 6.898437-.105468zm0 0" fill="#212121"/><path d="m20.589844 12.777344c-.414063 0-.746094.324218-.746094.722656v11.167969h-2.976562l5.957031 7.941406c.867187 1.113281 1.113281 1.113281 1.984375 0l5.953125-7.941406h-2.976563v-11.167969c0-.398438-.332031-.722656-.746094-.722656zm0 0" fill="url(#h)"/><path d="m20.589844 12.777344c-.414063 0-.746094.324218-.746094.722656v.394531c0-.398437.332031-.722656.746094-.722656h6.449218c.414063 0 .746094.324219.746094.722656v-.394531c0-.398438-.332031-.722656-.746094-.722656zm-3.722656 11.890625.296874.394531h2.679688v-.394531zm10.917968 0v.394531h2.679688l.296875-.394531zm0 0" fill="#f3f3f3"/><path d="m16.867188 24.667969 5.957031 7.941406c.867187 1.113281 1.113281 1.113281 1.984375 0l5.953125-7.941406h-.261719l-5.691406 7.589843c-.871094 1.117188-1.117188 1.117188-1.984375 0l-5.691407-7.589843zm0 0" fill-opacity=".235294"/><path d="m219.604029-78.721347c-4.416245 0-7.957574 3.458003-7.957574 7.707597v119.113625h-31.746968l63.535599 84.700245c9.249117 11.873866 11.873867 11.873866 21.164646 0l63.493937-84.700245h-31.746969v-119.113625c0-4.249594-3.541328-7.707597-7.957573-7.707597zm0 0" fill="none" stroke="#212121" stroke-linecap="round" stroke-width="3" transform="matrix(.093759 0 0 .093759 0 20.158175)"/></svg>

<?xml version="1.0" encoding="UTF-8"?>
<svg xmlns="http://www.w3.org/2000/svg" xmlns:xlink="http://www.w3.org/1999/xlink" width="48pt" height="48pt" viewBox="0 0 48 48" version="1.1">
<defs>
<linearGradient id="linear0" gradientUnits="userSpaceOnUse" x1="254" y1="233.5" x2="254" y2="254.666672" gradientTransform="matrix(0.093759,0,0,0.093759,-0.00000572259,15.196767)">
<stop offset="0" style="stop-color:rgb(0%,0%,0%);stop-opacity:0.27451;"/>
<stop offset="1" style="stop-color:rgb(0%,0%,0%);stop-opacity:0;"/>
</linearGradient>
<radialGradient id="radial0" gradientUnits="userSpaceOnUse" cx="450.908936" cy="189.579361" fx="450.908936" fy="189.579361" r="21.166656" gradientTransform="matrix(0.000000261256,-0.117199,-0.210958,-0.000000152308,79.684395,90.431589)">
<stop offset="0" style="stop-color:rgb(0%,0%,0%);stop-opacity:0.313725;"/>
<stop offset="0.222222" style="stop-color:rgb(0%,0%,0%);stop-opacity:0.27451;"/>
<stop offset="1" style="stop-color:rgb(0%,0%,0%);stop-opacity:0;"/>
</radialGradient>
<radialGradient id="radial1" gradientUnits="userSpaceOnUse" cx="450.908936" cy="189.579361" fx="450.908936" fy="189.579361" r="21.166656" gradientTransform="matrix(-0.000000261256,0.117199,0.210958,0.000000152308,-31.80678,-16.252629)">
<stop offset="0" style="stop-color:rgb(0%,0%,0%);stop-opacity:0.313725;"/>
<stop offset="0.222222" style="stop-color:rgb(0%,0%,0%);stop-opacity:0.27451;"/>
<stop offset="1" style="stop-color:rgb(0%,0%,0%);stop-opacity:0;"/>
</radialGradient>
<radialGradient id="radial2" gradientUnits="userSpaceOnUse" cx="450.908936" cy="189.579361" fx="450.908936" fy="189.579361" r="21.166656" gradientTransform="matrix(-0.000000261256,-0.117199,0.210958,-0.000000152308,-31.80678,90.431589)">
<stop offset="0" style="stop-color:rgb(0%,0%,0%);stop-opacity:0.313725;"/>
<stop offset="0.222222" style="stop-color:rgb(0%,0%,0%);stop-opacity:0.27451;"/>
<stop offset="1" style="stop-color:rgb(0%,0%,0%);stop-opacity:0;"/>
</radialGradient>
<radialGradient id="radial3" gradientUnits="userSpaceOnUse" cx="450.908936" cy="189.579361" fx="450.908936" fy="189.579361" r="21.166656" gradientTransform="matrix(0.000000261256,0.117199,-0.210958,0.000000152308,79.684393,-16.252629)">
<stop offset="0" style="stop-color:rgb(0%,0%,0%);stop-opacity:0.313725;"/>
<stop offset="0.222222" style="stop-color:rgb(0%,0%,0%);stop-opacity:0.27451;"/>
<stop offset="1" style="stop-color:rgb(0%,0%,0%);stop-opacity:0;"/>
</radialGradient>
<linearGradient id="linear1" gradientUnits="userSpaceOnUse" x1="254" y1="191.166672" x2="254" y2="-126.333344" gradientTransform="matrix(0.093759,0,0,0.093759,0,20.158175)">
<stop offset="0" style="stop-color:rgb(95.686275%,26.27451%,21.176471%);stop-opacity:1;"/>
<stop offset="1" style="stop-color:rgb(93.72549%,32.54902%,31.372549%);stop-opacity:1;"/>
</linearGradient>
<linearGradient id="linear2" gradientUnits="userSpaceOnUse" x1="960" y1="1155.118164" x2="960" y2="335.117218" gradientTransform="matrix(0.0248071,0,0,0.0248071,0.00000031253,4.448929)">
<stop offset="0" style="stop-color:rgb(87.843137%,87.843137%,87.843137%);stop-opacity:1;"/>
<stop offset="1" style="stop-color:rgb(93.333333%,93.333333%,93.333333%);stop-opacity:1;"/>
</linearGradient>
</defs>
<g id="surface1">
<path style=" stroke:none;fill-rule:nonzero;fill:url(#linear0);" d="M 7.691406 37.089844 L 40.1875 37.089844 L 40.1875 39.074219 L 7.691406 39.074219 Z M 7.691406 37.089844 "/>
<path style=" stroke:none;fill-rule:nonzero;fill:url(#radial0);" d="M 40.1875 37.089844 L 44.15625 37.089844 L 44.15625 35.105469 L 40.1875 35.105469 Z M 40.1875 37.089844 "/>
<path style=" stroke:none;fill-rule:nonzero;fill:url(#radial1);" d="M 7.691406 37.089844 L 3.722656 37.089844 L 3.722656 39.074219 L 7.691406 39.074219 Z M 7.691406 37.089844 "/>
<path style=" stroke:none;fill-rule:nonzero;fill:url(#radial2);" d="M 7.691406 37.089844 L 3.722656 37.089844 L 3.722656 35.105469 L 7.691406 35.105469 Z M 7.691406 37.089844 "/>
<path style=" stroke:none;fill-rule:nonzero;fill:url(#radial3);" d="M 40.1875 37.089844 L 44.15625 37.089844 L 44.15625 39.074219 L 40.1875 39.074219 Z M 40.1875 37.089844 "/>
<path style=" stroke:none;fill-rule:nonzero;fill:url(#linear1);" d="M 43.660156 13.273438 C 43.183594 11.496094 41.78125 10.09375 40 9.617188 C 36.753906 8.726562 23.757812 8.726562 23.757812 8.726562 C 23.757812 8.726562 10.761719 8.726562 7.515625 9.582031 C 5.769531 10.058594 4.335938 11.496094 3.855469 13.273438 C 3 16.523438 3 23.261719 3 23.261719 C 3 23.261719 3 30.03125 3.855469 33.246094 C 4.335938 35.023438 5.734375 36.425781 7.515625 36.90625 C 10.796875 37.792969 23.757812 37.792969 23.757812 37.792969 C 23.757812 37.792969 36.753906 37.792969 40 36.9375 C 41.78125 36.460938 43.183594 35.058594 43.660156 33.28125 C 44.515625 30.03125 44.515625 23.292969 44.515625 23.292969 C 44.515625 23.292969 44.550781 16.523438 43.660156 13.273438 Z M 43.660156 13.273438 "/>
<path style=" stroke:none;fill-rule:nonzero;fill:rgb(100%,100%,100%);fill-opacity:0.392157;" d="M 23.757812 8.726562 C 23.757812 8.726562 10.761719 8.726562 7.515625 9.582031 C 5.769531 10.058594 4.335938 11.496094 3.855469 13.273438 C 3 16.523438 3 23.261719 3 23.261719 C 3 23.261719 3 23.386719 3.003906 23.601562 C 3.015625 22.207031 3.113281 16.769531 3.855469 13.953125 C 4.335938 12.175781 5.769531 10.738281 7.515625 10.261719 C 10.761719 9.40625 23.757812 9.40625 23.757812 9.40625 C 23.757812 9.40625 36.753906 9.40625 40 10.292969 C 41.78125 10.773438 43.183594 12.175781 43.660156 13.953125 C 44.414062 16.710938 44.503906 21.984375 44.515625 23.527344 C 44.515625 23.40625 44.515625 23.292969 44.515625 23.292969 C 44.515625 23.292969 44.550781 16.523438 43.660156 13.273438 C 43.183594 11.496094 41.78125 10.09375 40 9.617188 C 36.753906 8.726562 23.757812 8.726562 23.757812 8.726562 Z M 23.757812 8.726562 "/>
<path style=" stroke:none;fill-rule:nonzero;fill:rgb(0%,0%,0%);fill-opacity:0.235294;" d="M 23.757812 37.832031 C 23.757812 37.832031 10.761719 37.832031 7.515625 36.980469 C 5.769531 36.5 4.335938 35.0625 3.855469 33.285156 C 3 30.035156 3 23.300781 3 23.300781 C 3 23.300781 3 23.175781 3.003906 22.960938 C 3.015625 24.355469 3.113281 29.789062 3.855469 32.605469 C 4.335938 34.386719 5.769531 35.820312 7.515625 36.300781 C 10.761719 37.15625 23.757812 37.15625 23.757812 37.15625 C 23.757812 37.15625 36.753906 37.15625 40 36.265625 C 41.78125 35.789062 43.183594 34.386719 43.660156 32.605469 C 44.414062 29.851562 44.503906 24.574219 44.515625 23.035156 C 44.515625 23.152344 44.515625 23.265625 44.515625 23.265625 C 44.515625 23.265625 44.550781 30.035156 43.660156 33.285156 C 43.183594 35.0625 41.78125 36.464844 40 36.945312 C 36.753906 37.832031 23.757812 37.832031 23.757812 37.832031 Z M 23.757812 37.832031 "/>
<path style=" stroke:none;fill-rule:nonzero;fill:rgb(12.941177%,12.941177%,12.941177%);fill-opacity:1;" d="M 23.757812 8.554688 C 23.757812 8.554688 20.507812 8.554688 16.847656 8.664062 C 13.191406 8.769531 9.148438 8.972656 7.472656 9.417969 L 7.46875 9.417969 C 5.664062 9.910156 4.183594 11.390625 3.691406 13.230469 C 3.253906 14.882812 3.042969 17.382812 2.9375 19.476562 C 2.828125 21.570312 2.828125 23.261719 2.828125 23.261719 C 2.828125 23.261719 2.828125 24.957031 2.9375 27.054688 C 3.042969 29.15625 3.253906 31.652344 3.691406 33.289062 C 4.183594 35.128906 5.632812 36.574219 7.46875 37.070312 C 9.164062 37.527344 13.207031 37.742188 16.863281 37.855469 C 20.515625 37.964844 23.757812 37.964844 23.757812 37.964844 C 23.757812 37.964844 27.007812 37.964844 30.667969 37.859375 C 34.324219 37.75 38.367188 37.546875 40.046875 37.105469 C 41.882812 36.609375 43.332031 35.160156 43.824219 33.324219 C 44.261719 31.671875 44.472656 29.171875 44.578125 27.078125 C 44.6875 24.984375 44.6875 23.296875 44.6875 23.296875 L 44.6875 23.292969 C 44.6875 23.292969 44.695312 21.597656 44.59375 19.496094 C 44.488281 17.390625 44.277344 14.882812 43.824219 13.230469 C 43.332031 11.394531 41.882812 9.945312 40.046875 9.449219 C 38.367188 8.992188 34.324219 8.777344 30.667969 8.667969 C 27.007812 8.554688 23.757812 8.554688 23.757812 8.554688 Z M 23.757812 8.898438 C 23.757812 8.898438 27.003906 8.898438 30.65625 9.007812 C 34.308594 9.121094 38.386719 9.351562 39.957031 9.78125 C 41.675781 10.242188 43.03125 11.601562 43.496094 13.320312 C 43.933594 14.914062 44.148438 17.417969 44.25 19.511719 C 44.351562 21.605469 44.34375 23.292969 44.34375 23.292969 C 44.34375 23.292969 44.34375 24.972656 44.238281 27.058594 C 44.132812 29.144531 43.914062 31.640625 43.496094 33.234375 C 43.03125 34.953125 41.675781 36.308594 39.957031 36.773438 C 38.386719 37.1875 34.308594 37.410156 30.65625 37.515625 C 27.003906 37.621094 23.757812 37.621094 23.757812 37.621094 C 23.757812 37.621094 20.519531 37.621094 16.871094 37.511719 C 13.226562 37.402344 9.144531 37.167969 7.558594 36.738281 C 5.839844 36.277344 4.484375 34.921875 4.019531 33.199219 C 3.601562 31.621094 3.382812 29.128906 3.277344 27.039062 C 3.171875 24.949219 3.171875 23.261719 3.171875 23.261719 C 3.171875 23.261719 3.171875 21.578125 3.277344 19.496094 C 3.382812 17.410156 3.601562 14.914062 4.019531 13.320312 C 4.484375 11.601562 5.875 10.207031 7.558594 9.746094 C 9.132812 9.332031 13.207031 9.109375 16.859375 9.003906 C 20.511719 8.898438 23.757812 8.898438 23.757812 8.898438 Z M 23.757812 8.898438 "/>
<path style=" stroke:none;fill-rule:nonzero;fill:url(#linear2);" d="M 20.589844 12.777344 C 20.175781 12.777344 19.84375 13.101562 19.84375 13.5 L 19.84375 24.667969 L 16.867188 24.667969 L 22.824219 32.609375 C 23.691406 33.722656 23.9375 33.722656 24.808594 32.609375 L 30.761719 24.667969 L 27.785156 24.667969 L 27.785156 13.5 C 27.785156 13.101562 27.453125 12.777344 27.039062 12.777344 Z M 20.589844 12.777344 "/>
<path style=" stroke:none;fill-rule:nonzero;fill:rgb(95.294118%,95.294118%,95.294118%);fill-opacity:1;" d="M 20.589844 12.777344 C 20.175781 12.777344 19.84375 13.101562 19.84375 13.5 L 19.84375 13.894531 C 19.84375 13.496094 20.175781 13.171875 20.589844 13.171875 L 27.039062 13.171875 C 27.453125 13.171875 27.785156 13.496094 27.785156 13.894531 L 27.785156 13.5 C 27.785156 13.101562 27.453125 12.777344 27.039062 12.777344 Z M 16.867188 24.667969 L 17.164062 25.0625 L 19.84375 25.0625 L 19.84375 24.667969 Z M 27.785156 24.667969 L 27.785156 25.0625 L 30.464844 25.0625 L 30.761719 24.667969 Z M 27.785156 24.667969 "/>
<path style=" stroke:none;fill-rule:nonzero;fill:rgb(0%,0%,0%);fill-opacity:0.235294;" d="M 16.867188 24.667969 L 22.824219 32.609375 C 23.691406 33.722656 23.9375 33.722656 24.808594 32.609375 L 30.761719 24.667969 L 30.5 24.667969 L 24.808594 32.257812 C 23.9375 33.375 23.691406 33.375 22.824219 32.257812 L 17.132812 24.667969 Z M 16.867188 24.667969 "/>
<path style="fill:none;stroke-width:3;stroke-linecap:round;stroke-linejoin:miter;stroke:rgb(12.941177%,12.941177%,12.941177%);stroke-opacity:1;stroke-miterlimit:4;" d="M 219.604029 -78.721347 C 215.187784 -78.721347 211.646455 -75.263344 211.646455 -71.01375 L 211.646455 48.099875 L 179.899487 48.099875 L 243.435086 132.80012 C 252.684203 144.673986 255.308953 144.673986 264.599732 132.80012 L 328.093669 48.099875 L 296.3467 48.099875 L 296.3467 -71.01375 C 296.3467 -75.263344 292.805372 -78.721347 288.389127 -78.721347 Z M 219.604029 -78.721347 " transform="matrix(0.093759,0,0,0.093759,0,20.158175)"/>
</g>
</svg>
